X: 32606
T: Planxty Robert Jordan
R: hornpipe
M: 4/4
K: Amajor
|:e2 ce f2 e2|c2 B2 A2 FE|EF A2 A2 Bc|e2 c2 B2 z2|
c2 e2 f2 e2|ecBA a2 A2|abc'b ba e2|f6 e2|fgaf efec|
BABc e2 (3cef|e2 cB A2 cB|AFAB B2 AB|
cBAF ABcA|BAFE FGAF|EFEC ECB,A,|C4 A4:|
|:E2 B,C EFCF|ECB,A, A2 A,2|ABcB BAFE|F4 f2 f2|
ec/B/ Ac e2 a2|ec/B/ Ac e2 a2|b2 af efec|B4 B2 cA|
F2 A2 ABAF|EFAB cBcA|BABc eceB|A2 f2 f2 fe|
c2 cB A2 A2|B2 BA F2 F2|fecB AFAE|EFAB A4:|

